build/img/sprites/blue_decor.svg

<svg width="783" height="833" viewBox="0 0 783 833" fill="none" xmlns="http://www.w3.org/2000/svg"><path fill-rule="evenodd" clip-rule="evenodd" d="M425.282 218.286l110.362 91.739c6.327 5.258 12.821 35.588 4.273 46.057L378.603 553.628l-38.101-31.713 137.447-161.697c4.082-6.904 10.714-6.291 7.659-18.195l-9.289-7.928-64.46-54.166c-5.988-3.616-7.756-8.492-18.376-2.92l-5.365 5.646-134.92 169.222-38.565-31.294L378.48 221.764c6.251-7.577 38.695-10.215 46.802-3.478z" fill="#5093E0"/><path fill-rule="evenodd" clip-rule="evenodd" d="M357.72 658.349l-110.362-91.74c-6.327-5.262-12.821-35.585-4.273-46.056l161.312-197.551 38.1 31.716L305.046 516.42c-4.083 6.898-10.71 6.29-7.654 18.192l9.286 7.922 64.458 54.175c5.99 3.616 7.762 8.487 18.382 2.923l5.362-5.647L529.801 424.76l38.565 31.291L404.519 654.87c-6.25 7.583-38.698 10.216-46.799 3.479z" fill="#5093E0"/><path fill-rule="evenodd" clip-rule="evenodd" d="M498.119 707.935l1.315 118.689c141.736-58.212 260.51-168.082 281.858-333.567 13-180.177-49.598-281.499-140.727-353.65l12.954-61.275-79.724-44.473-42.291 42.854a378.892 378.892 0 00-70.61-19.481L440.666 0 349.19.996l-14.009 54.188c-26.083 3.694-51.388 9.963-75.911 18.811l-42.845-36.447-78.719 46.198 13.952 49.427C77.092 190.285 17.458 288.957 3.635 380.734L0 494.108c.73 63.622 1.88 163.677 1.96 166.08l101.603-1.106c-.245-4.802-2.282-216.85-2.336-221.801-.566-51.133 11.962-99.167 37.647-143.544 25.737-44.486 60.923-79.923 105.468-106.324 44.227-26.306 92.442-39.789 144.49-40.463 52.041-.458 100.549 11.97 145.344 37.306 45.125 25.427 81.027 60.114 107.804 104.002 26.644 43.897 40.251 91.497 40.817 142.691 1.6 144.378-79.416 226.829-184.678 276.986zm-44.811 120.152l-1.314-118.547-50.839.554 1.313 118.548 50.84-.555zm-92.448 1.008l-1.314-118.547-50.845.553 1.314 118.549 50.845-.555zm-94.752 1.032l-1.313-118.549-50.837.554 1.314 118.548 50.836-.553zm-90.797 1.003L3.526 833 2.212 714.437l171.785-1.87 1.314 118.563z" fill="#5093E0"/></svg>

<svg width="783" height="833" viewBox="0 0 783 833" fill="none" xmlns="http://www.w3.org/2000/svg">
<path fill-rule="evenodd" clip-rule="evenodd" d="M425.282 218.286L535.644 310.025C541.971 315.283 548.465 345.613 539.917 356.082L378.603 553.628L340.502 521.915L477.949 360.218C482.031 353.314 488.663 353.927 485.608 342.023L476.319 334.095L411.859 279.929C405.871 276.313 404.103 271.437 393.483 277.009L388.118 282.655L253.198 451.877L214.633 420.583L378.48 221.764C384.731 214.187 417.175 211.549 425.282 218.286Z" fill="#5093E0"/>
<path fill-rule="evenodd" clip-rule="evenodd" d="M357.72 658.349L247.358 566.609C241.031 561.347 234.537 531.024 243.085 520.553L404.397 323.002L442.497 354.718L305.046 516.42C300.963 523.318 294.336 522.71 297.392 534.612L306.678 542.534L371.136 596.709C377.126 600.325 378.898 605.196 389.518 599.632L394.88 593.985L529.801 424.76L568.366 456.051L404.519 654.87C398.269 662.453 365.821 665.086 357.72 658.349Z" fill="#5093E0"/>
<path fill-rule="evenodd" clip-rule="evenodd" d="M498.119 707.935L499.434 826.624C641.17 768.412 759.944 658.542 781.292 493.057C794.292 312.88 731.694 211.558 640.565 139.407L653.519 78.1323L573.795 33.6589L531.504 76.5128C508.61 67.7465 485.07 61.2436 460.894 57.0316L440.666 0L349.19 0.996294L335.181 55.1839C309.098 58.8779 283.793 65.1468 259.27 73.995L216.425 37.5476L137.706 83.7458L151.658 133.173C77.0919 190.285 17.4576 288.957 3.63527 380.734L0 494.108C0.730596 557.73 1.88036 657.785 1.96006 660.188L103.563 659.082C103.318 654.28 101.281 442.232 101.227 437.281C100.661 386.148 113.189 338.114 138.874 293.737C164.611 249.251 199.797 213.814 244.342 187.413C288.569 161.107 336.784 147.624 388.832 146.95C440.873 146.492 489.381 158.92 534.176 184.256C579.301 209.683 615.203 244.37 641.98 288.258C668.624 332.155 682.231 379.755 682.797 430.949C684.397 575.327 603.381 657.778 498.119 707.935ZM453.308 828.087L451.994 709.54L401.155 710.094L402.468 828.642L453.308 828.087ZM360.86 829.095L359.546 710.548L308.701 711.101L310.015 829.65L360.86 829.095ZM266.108 830.127L264.795 711.578L213.958 712.132L215.272 830.68L266.108 830.127ZM175.311 831.13L3.52605 833L2.21245 714.437L173.997 712.567L175.311 831.13Z" fill="#5093E0"/>
</svg>
